X:0
M:4/4
K:Cdor
c 3 d c 2 B G | G F F 2 G B c d | c 3 d c B G A | B G G F G 2 f e | d 2 c d c B G A | B G F G B F G F | G B c d c d e f | g b f d e 2 e f | d B B 2 B 2 d c | B G G 2 B G F B | d B B 2 c d e f | g 2 f d g f d c | d g g 2 f d B c | d B B 2 B G B c | d f d c B 2 d B | c B B G F B G B | d 2 c d d 2 f d | g e c d e 2 f g | f d d B c 2 d B | d c c B G B B c | d 2 c d d 2 f d | c d c B c 2 d f | g b b 2 g a b d' | c' d' b g f d d f |

